images/icons/telegram.svg

<svg fill="#000000" xmlns="http://www.w3.org/2000/svg"  viewBox="0 0 50 50" width="30px" height="30px"><path d="M 44.376953 5.9863281 C 43.889905 6.0076957 43.415817 6.1432497 42.988281 6.3144531 C 42.565113 6.4845113 40.128883 7.5243408 36.53125 9.0625 C 32.933617 10.600659 28.256963 12.603668 23.621094 14.589844 C 14.349356 18.562196 5.2382813 22.470703 5.2382812 22.470703 L 5.3046875 22.445312 C 5.3046875 22.445312 4.7547875 22.629122 4.1972656 23.017578 C 3.9185047 23.211806 3.6186028 23.462555 3.3730469 23.828125 C 3.127491 24.193695 2.9479735 24.711788 3.015625 25.259766 C 3.2532479 27.184511 5.2480469 27.730469 5.2480469 27.730469 L 5.2558594 27.734375 L 14.158203 30.78125 C 14.385177 31.538434 16.858319 39.792923 17.402344 41.541016 C 17.702797 42.507484 17.984013 43.064995 18.277344 43.445312 C 18.424133 43.635633 18.577962 43.782915 18.748047 43.890625 C 18.815627 43.933415 18.8867 43.965525 18.957031 43.994141 C 18.958531 43.994806 18.959437 43.99348 18.960938 43.994141 C 18.969579 43.997952 18.977708 43.998295 18.986328 44.001953 L 18.962891 43.996094 C 18.979231 44.002694 18.995359 44.013801 19.011719 44.019531 C 19.043456 44.030655 19.062905 44.030268 19.103516 44.039062 C 20.123059 44.395042 20.966797 43.734375 20.966797 43.734375 L 21.001953 43.707031 L 26.470703 38.634766 L 35.345703 45.554688 L 35.457031 45.605469 C 37.010484 46.295216 38.415349 45.910403 39.193359 45.277344 C 39.97137 44.644284 40.277344 43.828125 40.277344 43.828125 L 40.310547 43.742188 L 46.832031 9.7519531 C 46.998903 8.9915162 47.022612 8.334202 46.865234 7.7402344 C 46.707857 7.1462668 46.325492 6.6299361 45.845703 6.34375 C 45.365914 6.0575639 44.864001 5.9649605 44.376953 5.9863281 z M 44.429688 8.0195312 C 44.627491 8.0103707 44.774102 8.032983 44.820312 8.0605469 C 44.866523 8.0881109 44.887272 8.0844829 44.931641 8.2519531 C 44.976011 8.419423 45.000036 8.7721605 44.878906 9.3242188 L 44.875 9.3359375 L 38.390625 43.128906 C 38.375275 43.162926 38.240151 43.475531 37.931641 43.726562 C 37.616914 43.982653 37.266874 44.182554 36.337891 43.792969 L 26.632812 36.224609 L 26.359375 36.009766 L 26.353516 36.015625 L 23.451172 33.837891 L 39.761719 14.648438 A 1.0001 1.0001 0 0 0 38.974609 13 A 1.0001 1.0001 0 0 0 38.445312 13.167969 L 14.84375 28.902344 L 5.9277344 25.849609 C 5.9277344 25.849609 5.0423771 25.356927 5 25.013672 C 4.99765 24.994652 4.9871961 25.011869 5.0332031 24.943359 C 5.0792101 24.874869 5.1948546 24.759225 5.3398438 24.658203 C 5.6298218 24.456159 5.9609375 24.333984 5.9609375 24.333984 L 5.9941406 24.322266 L 6.0273438 24.308594 C 6.0273438 24.308594 15.138894 20.399882 24.410156 16.427734 C 29.045787 14.44166 33.721617 12.440122 37.318359 10.902344 C 40.914175 9.3649615 43.512419 8.2583658 43.732422 8.1699219 C 43.982886 8.0696253 44.231884 8.0286918 44.429688 8.0195312 z M 33.613281 18.792969 L 21.244141 33.345703 L 21.238281 33.351562 A 1.0001 1.0001 0 0 0 21.183594 33.423828 A 1.0001 1.0001 0 0 0 21.128906 33.507812 A 1.0001 1.0001 0 0 0 20.998047 33.892578 A 1.0001 1.0001 0 0 0 20.998047 33.900391 L 19.386719 41.146484 C 19.35993 41.068197 19.341173 41.039555 19.3125 40.947266 L 19.3125 40.945312 C 18.800713 39.30085 16.467362 31.5161 16.144531 30.439453 L 33.613281 18.792969 z M 22.640625 35.730469 L 24.863281 37.398438 L 21.597656 40.425781 L 22.640625 35.730469 z"/></svg>

<svg xmlns="http://www.w3.org/2000/svg" viewBox="0 0 50 50" width="30" height="30"><path d="M44.377 5.986c-.487.022-.961.157-1.389.328-.423.17-2.86 1.21-6.457 2.748a20314.52 20314.52 0 0 0-12.91 5.528c-9.272 3.972-18.383 7.88-18.383 7.88l.067-.025s-.55.184-1.108.573a3.078 3.078 0 0 0-.824.81 2.145 2.145 0 0 0-.357 1.432c.237 1.925 2.232 2.47 2.232 2.47l.008.004 8.902 3.047c.227.757 2.7 9.012 3.244 10.76.3.966.582 1.524.875 1.904.147.19.301.338.471.446.068.042.139.075.209.103h.004c.009.004.017.004.025.008l-.023-.006c.016.007.032.018.049.024.031.01.05.01.092.02 1.02.355 1.863-.306 1.863-.306l.035-.027 5.469-5.072 8.875 6.92.111.05c1.553.69 2.958.305 3.736-.328s1.084-1.449 1.084-1.449l.034-.086 6.521-33.99c.167-.76.19-1.418.033-2.012-.157-.594-.54-1.11-1.02-1.396a2.588 2.588 0 0 0-1.468-.358zm.053 2.034c.197-.01.344.013.39.04.047.028.067.024.112.192.044.167.068.52-.053 1.072l-.004.012-6.484 33.793c-.016.034-.15.347-.46.598-.314.256-.664.456-1.593.066l-9.705-7.568-.274-.215-.005.006-2.903-2.178 16.31-19.19A1 1 0 0 0 38.976 13a1 1 0 0 0-.53.168L14.844 28.902 5.928 25.85s-.886-.493-.928-.836c-.002-.02-.013-.002.033-.07.046-.07.162-.185.307-.286.29-.202.62-.324.62-.324l.034-.012.033-.013s9.112-3.91 18.383-7.881c4.636-1.986 9.312-3.988 12.908-5.526 3.596-1.537 6.194-2.644 6.414-2.732.25-.1.5-.141.698-.15zM33.613 18.793 21.244 33.346l-.006.006a1 1 0 0 0-.054.072 1 1 0 0 0-.055.084 1 1 0 0 0-.131.385 1 1 0 0 0 0 .007l-1.611 7.246c-.027-.078-.046-.106-.075-.199v-.002c-.511-1.644-2.845-9.429-3.167-10.506l17.468-11.646zM22.641 35.73l2.222 1.668-3.265 3.028 1.043-4.696z"/></svg>
